X: 37328
T: Skylark's Song, The
R: jig
M: 6/8
K: Dmajor
|:f/e/|d>Bd cAF|G>EG FDA,|D>EF E>FG|AFD C2A,|
d>Bd cAF|G>EG AFD|A/B/G/A/F/G/ EGB|AFE D2:|
|:d/e/|f>ed B>dB|fga e2 f/e/|d>ed d>ed|cAF E2 D/E/|
F>GA f>ed|fed B2 d/A/|F>GA d>ef|a/e/dc d2:|

